X:1
T: Behind the Haystack
C:
R:Jig
Q:180
K:G
M:6/8
L:1/16
d2|e2f2e2 e2d2B2|d2e2f2 g2f2e2|d2B2A2 A2B2A2|d2B2A2 A2B2d2|e2f2e2 e2d2B2|d2e2f2 g2f2e2|d2B2G2 G2A2G2|d2B2G2 G4d2|
e2f2e2 e2d2B2|d2e2f2 g2f2e2|d2B2A2 A2B2A2|d2B2A2 A2B2d2|e2f2e2 e2d2B2|d2e2f2 g2f2e2|d2B2G2 G2A2G2|d2B2G2 G4d2|
g2b2g2 f2a2f2|e2g2e2 d2B2G2|d2B2A2 A2B2A2|d2B2A2 A2B2d2|g2b2g2 f2a2f2|e2g2e2 d2B2G2|d2B2G2 G2A2G2|d2B2G2 G4d2|
g2b2g2 f2a2f2|e2g2e2 d2B2G2|d2B2A2 A2B2A2|d2B2A2 A2B2d2|g2b2g2 f2a2f2|e2g2e2 d2B2G2|d2B2G2 G2A2G2|d2B2G2 G4d2|
g4a2 a2g2e2|g4a2 b2g2e2|d2B2A2 A2B2A2|d2B2A2 A2B2d2|g4a2 b2g2e2|g4a2 b2g2e2|d2B2G2 G2A2G2|d2B2G2 G4d2|
g4a2 a2g2e2|g4a2 b2g2e2|d2B2A2 A2B2A2|d2B2A2 A2B2d2|g4a2 b2g2e2|g4a2 b2g2e2|d2B2G2 G2A2G2|d2B2G2 G4||
